X: 37269
T: Skibbereen
R: waltz
M: 3/4
K: Eminor
B A2 B/A/ G/A2 B|e2 d B2 G|A2~G E2 D|E4 z2|
d e2 f g2|f e2 B d2|e d2 B G2|A B2 z2 z|
d e2 f g2|f e2 d/B/ d2|e d2 B/A/ G2|A B2 z2 B|
A2 G A2 B|e2 d B2 G|A2~G E2 D|E4 z2|

